public/images/catalog/4.design.svg

<svg viewBox="0 0 512 512" xmlns="http://www.w3.org/2000/svg"><path d="m316 346c-5.519531 0-10 4.480469-10 10s4.480469 10 10 10 10-4.480469 10-10-4.480469-10-10-10zm0 0"/><path d="m462 0h-412c-27.570312 0-50 22.429688-50 50v306c0 27.570312 22.429688 50 50 50h156v46h-10c-13.351562 0-25.902344 5.203125-35.351562 14.648438-9.445313 9.449218-14.648438 22-14.648438 35.351562 0 5.523438 4.476562 10 10 10h200c5.523438 0 10-4.476562 10-10 0-27.570312-22.429688-50-50-50h-10v-46h156c27.570312 0 50-22.429688 50-50v-306c0-27.570312-22.429688-50-50-50zm-412 20h412c16.542969 0 30 13.457031 30 30v256h-46v-230c0-5.523438-4.476562-10-10-10h-80c-5.523438 0-10 4.476562-10 10v230h-50.054688c-.105468-10.34375-.375-20.539062-.804687-30.429688-1.75-40.726562-5.738281-68.007812-7.8125-80.007812 20.632813-15.191406 26.265625-43.347656 13.652344-65.222656l-34.660157-60.03125c-1.789062-3.09375-5.089843-5-8.660156-5-3.574218 0-6.875 1.90625-8.660156 5l-34.675781 60.035156c-11.890625 20.625-7.675781 47.339844 11.003906 63.105469-2.164063 11.964843-6.53125 40.222656-8.429687 82.101562-.449219 9.996094-.734376 20.199219-.84375 30.449219h-50.054688v-150c0-1.585938-.375-3.03125-.988281-4.316406-.027344-.050782-.042969-.105469-.066407-.15625l-40-80c-1.695312-3.386719-5.15625-5.527344-8.945312-5.527344s-7.25 2.140625-8.945312 5.527344l-40 80c-.023438.050781-.039063.105468-.0625.15625-.625 1.296875-.992188 2.765625-.992188 4.316406v150h-46v-256c0-16.542969 13.457031-30 30-30zm316 286v-220h60v20h-10c-5.523438 0-10 4.476562-10 10s4.476562 10 10 10h10v30h-10c-5.523438 0-10 4.476562-10 10s4.476562 10 10 10h10v30h-10c-5.523438 0-10 4.476562-10 10s4.476562 10 10 10h10v40h-10c-5.523438 0-10 4.476562-10 10s4.476562 10 10 10h10v20zm-108.339844-100.691406c3.632813 0 7.25-.417969 10.789063-1.199219 1.855469 11.894531 4.582031 32.941406 6.195312 61.890625h-37.222656c1.691406-28.929688 4.546875-50.304688 6.519531-62.601562 4.429688 1.261718 9.042969 1.910156 13.71875 1.910156zm0-20c-22.855468 0-37.59375-24.875-26.011718-44.96875l26.011718-45.03125 25.996094 45.027344c11.539062 20.011718-2.996094 44.972656-25.996094 44.972656zm-21.15625 100.691406h39.019532c.210937 6.570312.355468 13.253906.425781 20h-39.894531c.074218-6.703125.226562-13.386719.449218-20zm-110.503906 20v-140h20v140zm-40 0v-140h20v140zm6.179688-160 23.820312-47.640625 23.820312 47.640625zm252.105468 346h-176.582031c1.46875-4.167969 3.867187-7.988281 7.085937-11.210938 5.671876-5.667968 13.203126-8.789062 21.210938-8.789062h120c13.039062 0 24.160156 8.359375 28.285156 20zm-58.285156-40h-60v-46h60zm176-66h-412c-16.542969 0-30-13.457031-30-30v-30h472v30c0 16.542969-13.457031 30-30 30zm0 0"/><path d="m276 346h-60c-5.523438 0-10 4.476562-10 10s4.476562 10 10 10h60c5.523438 0 10-4.476562 10-10s-4.476562-10-10-10zm0 0"/></svg>

<svg xmlns="http://www.w3.org/2000/svg" viewBox="0 0 512 512"><defs><style>.cls-1{fill:#547d87;}</style></defs><title>4-design</title><g id="Calque_2" data-name="Calque 2"><g id="Calque_1-2" data-name="Calque 1"><path class="cls-1" d="M316,346a10,10,0,1,0,10,10A10,10,0,0,0,316,346Z"/><path class="cls-1" d="M462,0H50A50.06,50.06,0,0,0,0,50V356a50.06,50.06,0,0,0,50,50H206v46H196a50,50,0,0,0-50,50,10,10,0,0,0,10,10H356a10,10,0,0,0,10-10,50.06,50.06,0,0,0-50-50H306V406H462a50.06,50.06,0,0,0,50-50V50A50.06,50.06,0,0,0,462,0ZM50,20H462a30,30,0,0,1,30,30V306H446V76a10,10,0,0,0-10-10H356a10,10,0,0,0-10,10V306H296c-.11-10.34-.38-20.54-.81-30.43-1.75-40.73-5.74-68-7.81-80A50,50,0,0,0,301,130.34l-34.66-60a10,10,0,0,0-17.32,0l-34.68,60a50,50,0,0,0,11,63.11c-2.17,12-6.53,40.22-8.43,82.1-.45,10-.74,20.2-.85,30.45H166V156a9.87,9.87,0,0,0-1-4.32.94.94,0,0,1-.06-.15l-40-80a10,10,0,0,0-17.9,0l-40,80a.94.94,0,0,1-.06.15A10,10,0,0,0,66,156V306H20V50A30,30,0,0,1,50,20ZM366,306V86h60v20H416a10,10,0,0,0,0,20h10v30H416a10,10,0,0,0,0,20h10v30H416a10,10,0,0,0,0,20h10v40H416a10,10,0,0,0,0,20h10v20ZM257.66,205.31a50.18,50.18,0,0,0,10.79-1.2C270.3,216,273,237.05,274.64,266H237.42c1.69-28.93,4.55-50.3,6.52-62.6A50.12,50.12,0,0,0,257.66,205.31Zm0-20c-22.86,0-37.59-24.88-26-45l26-45,26,45C295.2,160.35,280.66,185.31,257.66,185.31ZM236.5,286h39c.21,6.57.36,13.25.43,20h-39.9C236.13,299.3,236.28,292.61,236.5,286ZM126,306V166h20V306Zm-40,0V166h20V306Zm6.18-160L116,98.36,139.82,146ZM344.29,492H167.7A30.08,30.08,0,0,1,196,472H316A30.06,30.06,0,0,1,344.29,492ZM286,452H226V406h60Zm176-66H50a30,30,0,0,1-30-30V326H492v30A30,30,0,0,1,462,386Z"/><path class="cls-1" d="M276,346H216a10,10,0,0,0,0,20h60a10,10,0,0,0,0-20Z"/></g></g></svg>
